assets/images/icon_mob_1.svg

<svg width="36" height="36" viewBox="0 0 36 36" fill="none" xmlns="http://www.w3.org/2000/svg">
<path d="M18.2048 25.2577C17.938 25.1953 17.7613 25.0529 17.7692 24.7604C17.8222 22.6582 17.4944 20.5169 18.3599 18.4947C19.712 15.3355 22.0806 13.4477 25.5227 12.9875C26.0919 12.9115 26.1704 12.7048 26.1507 12.2114C26.0212 8.66995 23.0717 5.76622 19.3352 5.56926C18.3108 5.51466 17.2786 5.56926 16.2522 5.54196C15.8695 5.53221 15.8009 5.65117 15.8794 6.00024C16.4779 8.6953 16.1384 11.4235 16.1364 14.1381C16.1364 15.121 15.2514 15.862 14.1603 15.9381C13.6127 15.9751 13.3086 16.0122 13.287 16.7084C13.2615 17.4865 12.7552 18.0676 11.9447 18.2431C11.5188 18.3348 11.3599 18.5356 11.4482 18.9354C11.7543 20.318 11.0694 21.1117 9.77031 21.5232C10.3845 22.2194 11.5169 22.1648 11.4972 23.446C11.4776 24.6902 10.361 24.6083 9.84488 25.2343C10.3787 25.8564 11.5208 25.8037 11.4972 27.0869C11.4737 28.3311 10.3649 28.2472 9.85077 28.8596C9.90768 29.0468 10.0921 29.115 10.2354 29.1599C11.3579 29.5168 11.5954 30.3221 11.458 31.3752C11.4168 31.6814 11.3403 31.931 11.142 32.1611C10.361 33.066 9.57799 33.9669 8.81264 34.8854C8.43978 35.334 8.12186 35.3359 7.74704 34.8854C6.96795 33.9474 6.17709 33.0211 5.36857 32.1085C5.12719 31.8354 5.13112 31.5429 5.13112 31.227C5.13112 27.1883 5.12523 23.1516 5.14093 19.1129C5.14093 18.6351 5.11542 18.3445 4.52473 18.208C3.70639 18.0208 3.27466 17.3753 3.24718 16.5426C3.23345 16.1233 3.16476 15.9673 2.68789 15.9595C0.927587 15.9322 0.13084 15.121 0.158314 13.3873C0.193638 11.25 -0.0183048 9.10483 0.278022 6.9753C0.741156 3.64449 3.23148 1.06253 6.60883 0.337086C9.74283 -0.335706 13.2046 1.09568 14.904 3.87851C15.3024 4.52985 15.7165 4.6722 16.4033 4.67416C18.0106 4.67416 19.6276 4.5162 21.2191 4.94327C24.4846 5.82083 26.918 8.81816 27.0103 12.186C27.026 12.7301 27.181 12.9251 27.7383 12.9817C31.7338 13.3834 35.2309 16.9014 35.3742 20.8758C35.5155 24.8111 35.4566 28.7542 35.4389 32.6954C35.433 34.1931 34.4185 35.2326 32.8917 35.2501C28.7058 35.2969 24.5199 35.2969 20.336 35.254C18.7465 35.2384 17.7751 34.1463 17.7653 32.5745C17.7594 31.6755 17.7711 30.7746 17.7613 29.8736C17.7574 29.5304 17.7947 29.2359 18.2048 29.1579C18.5816 29.2632 18.6621 29.5362 18.6562 29.8892C18.6425 30.6907 18.6503 31.4942 18.6523 32.2957C18.6542 33.7563 19.2214 34.3531 20.6736 34.3569C24.6357 34.3667 28.5998 34.3686 32.562 34.3569C33.9789 34.3531 34.5421 33.7661 34.544 32.3425C34.548 28.8654 34.5441 25.3903 34.548 21.9132C34.548 21.0571 34.4911 20.2088 34.2144 19.3976C33.1782 16.3515 31.0627 14.5106 27.8875 13.8865C27.6265 13.8358 27.1555 13.674 27.0986 13.9645C26.9808 14.573 27.022 15.2204 27.0515 15.8483C27.0691 16.2228 27.4911 16.174 27.7266 16.3105C28.643 16.8507 29.116 17.8745 28.8569 18.8515C28.5684 19.9436 27.6677 20.6281 26.5511 20.6086C25.5031 20.5891 24.62 19.8929 24.3688 18.8847C24.1078 17.8414 24.5474 16.763 25.5345 16.3203C26.0506 16.0882 26.239 15.8152 26.1605 15.2848C26.1252 15.0468 26.1233 14.7953 26.1605 14.5574C26.2567 13.9333 26.0251 13.7715 25.4011 13.8573C22.1847 14.2941 19.3195 17.0535 18.7896 20.2342C18.5561 21.6383 18.6954 23.0462 18.6582 24.4542C18.6483 24.8189 18.6307 25.1407 18.2068 25.2577H18.2048ZM11.9035 5.54196C12.1998 6.1699 12.3313 6.71008 12.4235 7.25807C12.5707 8.13367 12.033 8.84937 11.1577 8.86107C9.17569 8.88837 7.19167 8.89032 5.20962 8.85912C4.38147 8.84546 3.95366 8.36183 3.96151 7.54668C3.97917 6.00999 4.6935 4.82626 5.99263 4.05012C7.39969 3.20766 8.91272 3.17061 10.3021 4.04427C11.0518 4.5162 11.77 4.74241 12.6256 4.66245C12.9416 4.6332 13.2634 4.6722 13.5794 4.6527C13.7835 4.641 14.0739 4.77166 14.172 4.53375C14.2623 4.31923 14.019 4.13982 13.8914 3.97796C12.2783 1.94009 10.1785 0.992327 7.55472 1.13664C4.24999 1.31995 1.22195 4.33093 1.14934 7.61884C1.10421 9.61186 1.12776 11.6088 1.13168 13.6038C1.13168 14.6568 1.52613 15.0351 2.60743 15.0351C6.3282 15.039 10.049 15.039 13.7697 15.0351C14.8177 15.0351 15.271 14.5788 15.2749 13.5199C15.2808 11.6946 15.271 9.87123 15.2749 8.04592C15.2749 7.33217 15.0905 6.65353 14.9217 5.97099C14.851 5.68432 14.6999 5.52441 14.3565 5.53416C13.5755 5.55951 12.7944 5.54196 11.9015 5.54196H11.9035ZM8.03355 26.0611C8.03355 27.9333 8.03355 29.8054 8.03355 31.6775C8.03355 32.2606 8.02963 32.8437 8.03748 33.4287C8.03944 33.6159 7.99627 33.8577 8.19644 33.9552C8.44566 34.0781 8.52024 33.8031 8.63406 33.6725C9.18158 33.0504 9.72321 32.4224 10.2511 31.7847C10.8025 31.1178 10.6691 30.4665 9.90964 30.0335C9.50734 29.8034 9.09719 29.585 8.71059 29.3334C8.21999 29.0156 8.22391 28.7172 8.72826 28.4052C9.20316 28.1088 9.70358 27.8513 10.1824 27.5608C10.7142 27.239 10.7044 26.8646 10.1628 26.5409C9.70358 26.2659 9.23064 26.0124 8.77339 25.7316C8.19251 25.3727 8.1984 25.09 8.79105 24.7292C9.2483 24.4503 9.72321 24.2007 10.1824 23.9238C10.7103 23.604 10.7025 23.2276 10.1608 22.9039C9.74283 22.6543 9.31306 22.4222 8.8931 22.1765C8.14738 21.7416 8.15326 21.4627 8.91665 21.0142C9.33661 20.7685 9.75068 20.5072 10.1883 20.2927C10.4748 20.1523 10.5415 19.9631 10.5494 19.6628C10.5808 18.3504 10.5906 18.3504 9.264 18.3504C9.06776 18.3504 8.86955 18.3738 8.67723 18.3465C8.16308 18.2723 8.01982 18.4713 8.0257 18.9841C8.05318 21.3418 8.03748 23.6995 8.03748 26.0592L8.03355 26.0611ZM8.20036 7.91721C9.05598 7.91721 9.91356 7.87625 10.7653 7.93086C11.4364 7.97376 11.5424 7.69489 11.4639 7.12156C11.2421 5.50101 9.72713 4.28803 7.96879 4.35824C6.36941 4.42259 4.93291 5.83448 4.84656 7.39262C4.82105 7.847 5.04477 7.92306 5.41763 7.92111C6.34586 7.91136 7.27409 7.91916 8.20232 7.91916L8.20036 7.91721ZM7.02486 32.5589C7.06019 32.4478 7.1014 32.3815 7.1014 32.3152C7.10532 27.8143 7.09747 23.3154 7.11514 18.8145C7.11514 18.3172 6.8404 18.3738 6.51071 18.3426C6.03384 18.2977 6.02402 18.5512 6.02402 18.9081C6.03187 22.7752 6.06524 26.6442 6.0044 30.5113C5.99066 31.4357 6.39885 31.9876 7.02486 32.5589ZM8.27886 15.9615C7.13084 15.9615 5.98085 15.9537 4.83283 15.9673C4.60715 15.9693 4.2912 15.8288 4.17345 16.1019C4.04589 16.3963 4.12831 16.7279 4.31082 17.0048C4.53454 17.3441 4.88385 17.4474 5.26652 17.4299C7.26821 17.3343 9.26792 17.3441 11.2696 17.424C11.4815 17.4318 11.721 17.3987 11.9074 17.3051C12.3332 17.0964 12.4608 16.6889 12.4117 16.2579C12.3529 15.7411 11.9152 15.979 11.6523 15.9732C10.5278 15.9459 9.40333 15.9615 8.27886 15.9615ZM26.6021 19.7135C27.4067 19.7135 28.0562 19.07 28.0347 18.2938C28.0131 17.5508 27.3635 16.9229 26.6119 16.9209C25.8152 16.917 25.1852 17.5567 25.2009 18.3543C25.2166 19.1363 25.8112 19.7135 26.6001 19.7135H26.6021Z" fill="black"/>
<path d="M18.205 25.2576C18.6289 25.1406 18.6485 24.8169 18.6564 24.4542C18.6917 23.0481 18.5523 21.6382 18.7878 20.2341C19.3177 17.0535 22.1828 14.2941 25.3993 13.8572C26.0233 13.7714 26.2529 13.9333 26.1587 14.5573C26.1214 14.7952 26.1234 15.0468 26.1587 15.2847C26.2392 15.8151 26.0488 16.0882 25.5327 16.3202C24.5456 16.7649 24.106 17.8413 24.367 18.8846C24.6202 19.8929 25.5013 20.589 26.5493 20.6085C27.6678 20.628 28.5666 19.9436 28.8551 18.8515C29.1142 17.8745 28.6412 16.8507 27.7248 16.3105C27.4912 16.172 27.0693 16.2227 27.0497 15.8483C27.0183 15.2204 26.9771 14.5729 27.0968 13.9645C27.1537 13.6739 27.6247 13.8358 27.8857 13.8865C31.0589 14.5105 33.1744 16.3514 34.2126 19.3975C34.4893 20.2107 34.5481 21.059 34.5462 21.9132C34.5422 25.3902 34.5462 28.8654 34.5422 32.3424C34.5422 33.766 33.979 34.353 32.5602 34.3569C28.598 34.3686 24.6339 34.3666 20.6718 34.3569C19.2196 34.353 18.6524 33.7582 18.6505 32.2956C18.6505 31.4941 18.6407 30.6907 18.6544 29.8892C18.6603 29.5362 18.5798 29.2632 18.203 29.1579C18.203 27.8571 18.203 26.5564 18.203 25.2557L18.205 25.2576ZM26.5983 32.2605C29.1514 32.2586 31.1629 30.2733 31.1786 27.7401C31.1924 25.1757 29.1652 23.1632 26.5767 23.173C24.0393 23.1827 22.0219 25.2011 22.0239 27.7245C22.0259 30.2363 24.0687 32.2625 26.5983 32.2586V32.2605Z" fill="#FE0000"/>
<path d="M11.9035 5.54203C12.7964 5.54203 13.5774 5.55958 14.3585 5.53423C14.7019 5.52448 14.853 5.68244 14.9237 5.97106C15.0924 6.6536 15.2789 7.33224 15.2769 8.04599C15.271 9.8713 15.2808 11.6947 15.2769 13.52C15.273 14.5789 14.8197 15.0352 13.7717 15.0352C10.0509 15.0391 6.33017 15.0391 2.6094 15.0352C1.5281 15.0352 1.13561 14.6569 1.13365 13.6038C1.12973 11.6089 1.10814 9.61388 1.15131 7.61891C1.22392 4.33296 4.24999 1.32002 7.55669 1.13671C10.1805 0.9924 12.2803 1.94016 13.8934 3.97804C14.0209 4.1399 14.2643 4.31931 14.174 4.53382C14.0739 4.77173 13.7855 4.64108 13.5814 4.65278C13.2634 4.67228 12.9436 4.63328 12.6276 4.66253C11.772 4.74248 11.0537 4.51627 10.3041 4.04434C8.91469 3.16874 7.40362 3.20774 5.9946 4.05019C4.69547 4.82634 3.98114 6.00811 3.96348 7.54676C3.95367 8.35996 4.38344 8.84554 5.21158 8.85919C7.19364 8.89039 9.17766 8.88844 11.1597 8.86114C12.035 8.84944 12.5707 8.13374 12.4255 7.25814C12.3333 6.71016 12.2037 6.16997 11.9054 5.54203H11.9035Z" fill="#FE0000"/>
<path d="M26.5982 32.2606C24.0686 32.2625 22.0257 30.2383 22.0237 27.7265C22.0218 25.2031 24.0392 23.1847 26.5766 23.175C29.165 23.1652 31.1922 25.1758 31.1785 27.7421C31.1647 30.2754 29.1533 32.2606 26.5982 32.2625V32.2606ZM26.6472 24.0545C24.5867 24.0389 22.9284 25.6341 22.9088 27.6544C22.8892 29.7313 24.516 31.3752 26.5962 31.3811C28.6528 31.3869 30.2797 29.7839 30.2915 27.7421C30.3032 25.6906 28.7019 24.0701 26.6472 24.0545Z" fill="black"/>
<path d="M26.6472 24.0545C28.7019 24.0701 30.3032 25.6887 30.2915 27.7422C30.2797 29.784 28.6528 31.387 26.5962 31.3811C24.516 31.3753 22.8872 29.7294 22.9088 27.6545C22.9284 25.6361 24.5867 24.0389 26.6472 24.0545Z" fill="black"/>
</svg>

<svg xmlns="http://www.w3.org/2000/svg" width="36" height="36" fill="none"><path fill="#000" d="M18.205 25.258c-.267-.063-.444-.205-.436-.498.053-2.102-.275-4.243.59-6.265 1.353-3.16 3.722-5.047 7.164-5.507.569-.076.647-.283.628-.777-.13-3.541-3.08-6.445-6.816-6.642-1.024-.054-2.056 0-3.083-.027-.382-.01-.451.11-.373.458.599 2.695.26 5.424.257 8.138 0 .983-.885 1.724-1.976 1.8-.547.037-.851.074-.873.77-.026.779-.532 1.36-1.342 1.535-.426.092-.585.293-.497.692.306 1.383-.379 2.177-1.678 2.588.614.696 1.747.642 1.727 1.923-.02 1.244-1.136 1.162-1.652 1.788.534.622 1.676.57 1.652 1.853-.023 1.244-1.132 1.16-1.646 1.773.057.187.241.255.384.3 1.123.357 1.36 1.162 1.223 2.215-.041.306-.118.556-.316.786-.781.905-1.564 1.806-2.33 2.724-.372.449-.69.45-1.065 0Q6.58 33.478 5.369 32.11c-.242-.274-.238-.566-.238-.882 0-4.039-.006-8.075.01-12.114 0-.478-.026-.768-.616-.905-.819-.187-1.25-.833-1.278-1.665-.014-.42-.082-.576-.56-.583-1.76-.028-2.556-.839-2.529-2.573.036-2.137-.176-4.282.12-6.412.463-3.33 2.953-5.912 6.33-6.638 3.135-.673 6.597.759 8.296 3.542.398.65.813.793 1.5.795 1.607 0 3.224-.158 4.815.27 3.266.877 5.699 3.874 5.791 7.242.016.544.171.74.728.796 3.996.401 7.493 3.92 7.636 7.894.142 3.935.083 7.878.065 11.82-.006 1.497-1.02 2.537-2.547 2.554q-6.28.07-12.556.004c-1.59-.016-2.56-1.108-2.57-2.68-.007-.898.005-1.8-.005-2.7-.004-.344.034-.638.444-.716.377.105.457.378.451.731-.014.802-.006 1.605-.004 2.407.002 1.46.57 2.057 2.022 2.06 3.962.01 7.926.013 11.888 0 1.417-.003 1.98-.59 1.982-2.014.004-3.477 0-6.952.004-10.429 0-.856-.057-1.704-.334-2.515-1.036-3.046-3.151-4.887-6.326-5.511-.262-.051-.733-.213-.79.077-.117.609-.076 1.256-.046 1.884.017.375.44.326.675.463.916.54 1.389 1.564 1.13 2.54-.289 1.093-1.19 1.777-2.306 1.758a2.27 2.27 0 0 1-2.182-1.724c-.261-1.044.178-2.122 1.166-2.565.516-.232.704-.505.625-1.035a2.5 2.5 0 0 1 0-.728c.097-.624-.135-.786-.759-.7-3.216.437-6.081 3.197-6.611 6.377-.234 1.404-.095 2.812-.132 4.22-.01.365-.027.687-.451.804zM11.904 5.542c.296.628.427 1.168.52 1.716.147.876-.391 1.591-1.266 1.603-1.982.027-3.966.03-5.948-.002-.829-.014-1.256-.497-1.248-1.312.017-1.537.732-2.72 2.03-3.497 1.408-.842 2.92-.88 4.31-.006.75.472 1.468.698 2.324.618.316-.029.637.01.953-.01.204-.011.495.12.593-.118.09-.215-.153-.394-.28-.556C12.277 1.94 10.178.992 7.554 1.137 4.25 1.32 1.222 4.33 1.149 7.619c-.045 1.993-.021 3.99-.017 5.985 0 1.053.394 1.431 1.475 1.431q5.581.006 11.163 0c1.048 0 1.501-.456 1.505-1.515.006-1.825-.004-3.649 0-5.474 0-.714-.184-1.392-.353-2.075-.071-.287-.222-.447-.566-.437-.78.026-1.562.008-2.454.008zm-3.87 20.52v5.615c0 .584-.004 1.167.003 1.752.002.187-.04.429.16.526.249.123.323-.152.437-.282a82 82 0 0 0 1.617-1.888c.552-.667.418-1.319-.341-1.751-.403-.23-.813-.449-1.2-.7-.49-.318-.486-.617.018-.929.475-.296.976-.554 1.454-.844.532-.322.522-.696-.02-1.02-.458-.275-.931-.529-1.389-.81-.58-.358-.575-.641.018-1.002.457-.279.932-.528 1.391-.805.528-.32.52-.696-.021-1.02-.418-.25-.848-.482-1.268-.727-.746-.435-.74-.714.024-1.163.42-.245.834-.507 1.271-.721.287-.14.353-.33.361-.63.032-1.313.042-1.313-1.285-1.313-.196 0-.394.024-.587-.004-.514-.074-.657.125-.651.638.027 2.358.011 4.715.011 7.075zM8.2 7.916c.856 0 1.714-.04 2.565.014.671.043.777-.236.699-.81-.222-1.62-1.737-2.833-3.495-2.763-1.6.065-3.036 1.476-3.122 3.035-.026.454.198.53.57.528.929-.01 1.857-.002 2.785-.002zM7.025 32.56c.035-.111.076-.177.076-.244.004-4.5-.004-9 .014-13.5 0-.498-.275-.441-.604-.472-.477-.045-.487.208-.487.565.008 3.867.041 7.736-.02 11.603-.013.925.395 1.477 1.02 2.048m1.254-16.597c-1.148 0-2.298-.008-3.446.005-.226.002-.542-.138-.66.135-.127.294-.045.626.138.903.224.34.573.442.956.425a69 69 0 0 1 6.003-.006c.212.008.451-.025.637-.119.426-.209.554-.616.505-1.047-.06-.517-.497-.279-.76-.285-1.124-.027-2.249-.012-3.373-.012m18.323 3.752c.805 0 1.454-.644 1.433-1.42-.022-.743-.672-1.371-1.423-1.373a1.396 1.396 0 0 0-1.411 1.433c.016.782.61 1.36 1.4 1.36z"/><path fill="#FE0000" d="M18.205 25.258c.424-.117.444-.441.451-.804.036-1.406-.104-2.816.132-4.22.53-3.18 3.395-5.94 6.611-6.377.624-.086.854.076.76.7-.038.238-.036.49 0 .728.08.53-.11.803-.626 1.035-.987.445-1.427 1.521-1.166 2.565a2.27 2.27 0 0 0 2.182 1.723c1.119.02 2.018-.664 2.306-1.756.26-.977-.214-2.001-1.13-2.541-.234-.139-.656-.088-.675-.463-.032-.628-.073-1.275.047-1.884.057-.29.528-.128.789-.078 3.173.625 5.288 2.465 6.327 5.512.276.813.335 1.661.333 2.515-.004 3.477 0 6.952-.004 10.43 0 1.423-.563 2.01-1.982 2.014q-5.944.017-11.888 0c-1.452-.004-2.02-.599-2.021-2.061 0-.802-.01-1.605.003-2.407.006-.353-.074-.626-.451-.731v-3.902zm8.393 7.003c2.553-.002 4.565-1.988 4.58-4.52.014-2.565-2.013-4.578-4.601-4.568-2.538.01-4.555 2.028-4.553 4.552.002 2.511 2.045 4.538 4.574 4.534zM11.904 5.542c.892 0 1.673.018 2.454-.008.344-.01.495.148.566.437.168.683.355 1.361.353 2.075-.006 1.825.004 3.649 0 5.474-.004 1.059-.457 1.515-1.505 1.515q-5.581.006-11.163 0c-1.08 0-1.473-.378-1.475-1.431-.004-1.995-.026-3.99.017-5.985.073-3.286 3.099-6.299 6.406-6.482 2.624-.145 4.723.803 6.336 2.841.128.162.371.341.281.556-.1.238-.388.107-.593.119-.318.02-.637-.02-.953.01-.856.08-1.574-.147-2.324-.619-1.39-.875-2.9-.836-4.31.006-1.299.776-2.013 1.958-2.03 3.497-.01.813.42 1.299 1.248 1.312q2.974.045 5.948.002c.875-.012 1.41-.727 1.265-1.603a6.2 6.2 0 0 0-.52-1.716z"/><path fill="#000" d="M26.598 32.26c-2.53.003-4.572-2.022-4.574-4.533-.002-2.524 2.015-4.542 4.553-4.552 2.588-.01 4.615 2 4.601 4.567-.013 2.533-2.025 4.519-4.58 4.52zm.05-8.205c-2.061-.016-3.72 1.58-3.74 3.6-.019 2.076 1.608 3.72 3.688 3.726 2.057.006 3.684-1.597 3.695-3.639.012-2.051-1.59-3.672-3.644-3.687"/><path fill="#000" d="M26.647 24.055c2.055.015 3.656 1.634 3.645 3.687-.012 2.042-1.64 3.645-3.696 3.64-2.08-.007-3.709-1.653-3.687-3.728.02-2.018 1.678-3.615 3.738-3.6"/></svg>
